T: Ship Of Grace
M: 4/4
L: 1/8
K: Gmaj
d | Bd dd/e/ dg a/g/f/e/ |dB BA/G/ B2Ad |
Bd dd/e/ dg a/g/f/e/ | dB A/G/A G3||
|: d | gd de/f/ gd dg | e>d eg a4 |
gb eg d>g dB | AG AB/A/ G3 :|
